!!!OTL: The Border Widow's Lament
!!!ARE: Scotland
!!!AMD: Pentatonic
**kern
*clefG2
*k[b-]
*met(C)
*M4/4
*MM76
{(8a/L
8g/J)
=1
(8g/L
8f/J)
(8f/L
8d/J)
(8.c/L
16d/Jk)
(8f/L
8g/J)
=2
4a/
(8g/L
8f/J)
4g/}
{(8a/L
8g/J)
=3
(8g/L
8f/J)
(8f/L
8d/J)
(8.c/L
16d/Jk)
(8f/L
8g/J)
=4
4a/
(8.g/L
16f/Jk)
4.f/}
{8f/
=5
(8f/L
8a/J)
(8.cc\L
16dd\Jk)
4dd\
(8cc\L
8dd\J)
=6
4dd\
(8cc\L
8a\J)
4g/}
{8a/L
8g/J
=7
(8g/L
8f/J)
(8f/L
8d/J)
(8.c/L
16d/Jk)
(8f/L
8g/J)
=8
4a/
(8.g/L
16f/Jk)
4f/}
==
*-
